public/images/home/mongodb.svg

<svg width="174" height="47" viewBox="0 0 174 47" fill="none" xmlns="http://www.w3.org/2000/svg">
<path d="M21.0252 18.8528C18.6309 8.27149 13.6406 5.45462 12.3675 3.46339C11.8426 2.5862 11.3776 1.6744 10.9757 0.734253C10.9084 1.67425 10.7849 2.26645 9.98731 2.97929C8.38588 4.40965 1.58452 9.96192 1.01214 21.9845C0.478852 33.194 9.2382 40.1062 10.3955 40.8206C11.2853 41.2592 12.3691 40.83 12.8977 40.4273C17.1202 37.5243 22.8894 29.785 21.0299 18.8528" fill="#10AA50"/>
<path d="M11.3382 34.8521C11.1177 37.6266 10.9597 39.2387 10.3999 40.8242C10.3999 40.8242 10.7674 43.4656 11.0254 46.2636H11.9387C12.1566 44.2933 12.4892 42.3373 12.9349 40.4059C11.7526 39.8231 11.3836 37.2866 11.3382 34.8521Z" fill="#B8C4C2"/>
<path d="M12.9332 40.4077C11.7384 39.8547 11.3928 37.265 11.3396 34.8523C11.6351 30.8725 11.7213 26.8798 11.5977 22.8908C11.5351 20.7978 11.6274 3.50488 11.0832 0.973145C11.4554 1.83062 11.8844 2.66227 12.3671 3.46258C13.6401 5.45538 18.6321 8.27225 21.0248 18.8535C22.889 29.7669 17.1511 37.4859 12.9332 40.4077Z" fill="#12924F"/>
<path d="M170.417 36.5813C169.906 36.5812 169.406 36.4296 168.98 36.1456C168.554 35.8616 168.221 35.4578 168.024 34.9849C167.827 34.5121 167.773 33.9914 167.87 33.4882C167.968 32.985 168.211 32.5219 168.57 32.157C168.93 31.7921 169.389 31.5418 169.89 31.4375C170.39 31.3331 170.911 31.3795 171.386 31.5707C171.86 31.7619 172.268 32.0894 172.557 32.5121C172.847 32.9347 173.005 33.4337 173.012 33.9461C173.021 34.2917 172.961 34.6355 172.834 34.9571C172.708 35.2786 172.517 35.5712 172.275 35.8173C172.033 36.0634 171.743 36.2579 171.424 36.3892C171.105 36.5205 170.762 36.5858 170.417 36.5813ZM170.417 31.6181C169.95 31.615 169.492 31.7509 169.102 32.0087C168.712 32.2665 168.407 32.6345 168.225 33.0661C168.044 33.4977 167.994 33.9735 168.083 34.4333C168.172 34.893 168.395 35.316 168.724 35.6487C169.053 35.9813 169.473 36.2087 169.932 36.3019C170.39 36.3952 170.865 36.3502 171.298 36.1726C171.73 35.9949 172.1 35.6927 172.361 35.3042C172.622 34.9156 172.762 34.4583 172.763 33.99C172.769 33.6787 172.713 33.3693 172.598 33.0802C172.482 32.7911 172.31 32.5282 172.091 32.307C171.872 32.0858 171.612 31.9109 171.324 31.7925C171.037 31.6742 170.728 31.6149 170.417 31.6181ZM171.043 35.6256L170.374 34.1796H169.834V35.6256H169.442V32.3356H170.41C171.131 32.3356 171.431 32.6489 171.431 33.2552C171.431 33.7378 171.204 34.0386 170.782 34.131L171.473 35.6209L171.043 35.6256ZM169.85 33.8396H170.417C170.877 33.8396 171.052 33.6829 171.052 33.2631C171.052 32.8432 170.885 32.7006 170.367 32.7006H169.85V33.8396Z" fill="#21313C"/>
<path d="M131.804 34.2134C132.506 34.7758 133.909 35.0077 135.146 35.0077C136.749 35.0077 138.32 34.71 139.856 33.3204C141.42 31.8963 142.496 29.717 142.496 26.2375C142.496 22.8942 141.226 20.1807 138.621 18.5921C137.15 17.6662 135.246 17.3012 133.073 17.3012C132.448 17.3012 131.804 17.3341 131.438 17.5002C131.288 17.6188 131.181 17.7842 131.136 17.9702C131.07 18.5655 131.07 23.0994 131.07 25.78C131.07 28.5279 131.07 32.36 131.136 32.83C131.17 33.2279 131.37 33.9267 131.804 34.2196V34.2134ZM125.135 15.8129C125.703 15.8129 127.861 15.9116 128.865 15.9116C130.742 15.9116 132.038 15.8129 135.546 15.8129C138.486 15.8129 140.96 16.6072 142.729 18.1284C144.868 19.9833 146.013 22.5636 146.013 25.7079C146.013 30.1761 143.98 32.7579 141.936 34.2134C139.903 35.7362 137.258 36.5963 133.491 36.5963C131.486 36.5963 128.044 36.5305 125.171 36.4976H125.112C124.977 36.2328 125.357 35.2004 125.592 35.1737C126.374 35.086 126.58 35.0547 126.94 34.9058C127.547 34.6567 127.689 34.3465 127.756 33.2546C127.856 31.2022 127.823 28.7535 127.823 25.9727C127.823 23.9877 127.856 20.1149 127.791 18.8898C127.689 17.8652 127.257 17.6004 126.383 17.4015C125.763 17.2695 125.137 17.1702 124.506 17.1038C124.441 16.9048 124.954 16.0071 125.121 15.8129" fill="#21313C"/>
<path d="M154.293 17.4921C154.161 17.525 153.993 17.8571 153.993 18.0216C153.959 19.2139 153.926 22.3237 153.926 24.4747C153.934 24.5159 153.955 24.5536 153.985 24.5831C154.014 24.6126 154.052 24.6327 154.093 24.6408C154.527 24.6737 155.596 24.7082 156.499 24.7082C157.768 24.7082 158.503 24.5421 158.904 24.3431C159.974 23.8136 160.468 22.6543 160.468 21.3978C160.468 18.5183 158.463 17.4263 155.49 17.4263C155.088 17.4212 154.686 17.4432 154.287 17.4921H154.293ZM161.872 30.7304C161.872 27.818 159.733 26.1636 155.823 26.1636C155.657 26.1636 154.415 26.1307 154.12 26.1965C154.02 26.2294 153.92 26.2952 153.92 26.3626C153.92 28.4478 153.885 31.7895 153.987 33.1133C154.054 33.6758 154.456 34.4701 154.955 34.7019C155.49 34.9996 156.692 35.0654 157.528 35.0654C159.833 35.0654 161.872 33.776 161.872 30.7304ZM148.257 15.8706C148.559 15.8706 149.447 15.9693 151.719 15.9693C153.857 15.9693 155.595 15.9035 157.662 15.9035C160.235 15.9035 163.775 16.831 163.775 20.6693C163.775 22.5493 162.44 24.0784 160.702 24.8069C160.602 24.8398 160.602 24.9056 160.702 24.9385C163.175 25.5651 165.346 27.0895 165.346 30.0019C165.346 32.8486 163.575 34.6361 161.003 35.761C159.439 36.4566 157.495 36.6869 155.529 36.6869C154.026 36.6869 149.997 36.5302 147.758 36.5553C147.523 36.4566 147.972 35.396 148.172 35.2315C148.685 35.2157 149.195 35.1357 149.688 34.9933C150.489 34.7959 150.584 34.5374 150.684 33.3452C150.751 32.319 150.751 28.6452 150.751 26.0304C150.751 22.4553 150.786 20.0411 150.751 18.8488C150.718 17.9229 150.384 17.6237 149.749 17.4592C149.248 17.3589 148.413 17.2602 147.745 17.1615C147.578 16.9955 148.093 16.0022 148.258 15.8706" fill="#21313C"/>
<path d="M28.4239 36.5819C28.3378 36.3701 28.303 36.1409 28.3222 35.913C28.3147 35.7576 28.3499 35.6032 28.4239 35.4665C28.856 35.404 29.2842 35.3167 29.7063 35.2048C30.2974 35.0576 30.5195 34.7348 30.5539 33.9797C30.6508 32.1953 30.6571 28.8473 30.6227 26.4942V26.4252C30.6227 26.1714 30.6227 25.8268 30.3099 25.5839C29.7602 25.2384 29.1633 24.9746 28.538 24.8006C28.2581 24.7176 28.1033 24.5703 28.1111 24.398C28.1189 24.2256 28.2956 24.022 28.66 23.9499C29.6281 23.8512 32.1647 23.2449 33.1609 22.7843C33.2635 22.9182 33.311 23.0864 33.2938 23.2543C33.2938 23.3577 33.2782 23.4674 33.2672 23.5802C33.2391 23.9123 33.2078 24.2899 33.2078 24.6659C33.2139 24.7115 33.2327 24.7546 33.2619 24.7902C33.2911 24.8258 33.3297 24.8525 33.3733 24.8673C33.4168 24.8821 33.4636 24.8845 33.5085 24.8741C33.5533 24.8637 33.5943 24.8409 33.6269 24.8084C35.5239 23.3185 37.2239 22.7874 38.095 22.7874C39.529 22.7874 40.6457 23.4736 41.5105 24.8868C41.5303 24.9209 41.5586 24.9493 41.5925 24.9693C41.6265 24.9894 41.665 25.0003 41.7044 25.0011C41.7402 25.0008 41.7754 24.9918 41.807 24.9749C41.8386 24.958 41.8656 24.9336 41.8858 24.904C43.6296 23.5786 45.3577 22.7874 46.5149 22.7874C49.2486 22.7874 50.8829 24.8382 50.8829 28.2708C50.8829 29.2578 50.8735 30.5095 50.8641 31.6767C50.8563 32.7013 50.8485 33.6617 50.8485 34.3259C50.8485 34.4826 51.0643 34.9338 51.388 35.0231C51.7884 35.2189 52.3654 35.3192 53.0958 35.4445H53.1239C53.1787 35.6419 53.0629 36.408 52.9519 36.5647C52.7705 36.5647 52.5203 36.549 52.2075 36.5334C51.6398 36.5052 50.861 36.466 49.9555 36.466C48.1383 36.466 47.189 36.5005 46.2819 36.56C46.2131 36.3328 46.1897 35.5996 46.2725 35.4461C46.6482 35.3873 47.02 35.3062 47.386 35.2033C47.9647 35.0121 48.132 34.7489 48.168 33.9797C48.182 33.4329 48.2868 28.6154 48.1007 27.4718C47.9287 26.2858 47.0373 24.8977 45.0871 24.8977C44.363 24.8977 43.1948 25.2001 42.0813 26.0461C42.0122 26.1245 41.9734 26.2251 41.9718 26.3297V26.3532C42.1032 26.9704 42.1032 27.6911 42.1032 28.7799C42.1032 29.4066 42.1032 30.0599 42.0954 30.7132C42.0876 32.0417 42.0813 33.2951 42.1032 34.2429C42.1032 34.8884 42.4926 35.0435 42.807 35.1672C42.9774 35.2048 43.1119 35.2377 43.248 35.2691C43.5091 35.3333 43.7813 35.3991 44.1863 35.4633C44.2463 35.7386 44.2409 36.024 44.1707 36.2968C44.1541 36.3992 44.1139 36.4963 44.0534 36.5804C43.0431 36.5459 42.0062 36.5161 40.5096 36.5161C40.0561 36.5161 39.3164 36.5349 38.6627 36.5522C38.1325 36.5663 37.632 36.5804 37.3474 36.5819C37.2704 36.4 37.2362 36.2027 37.2473 36.0054C37.2314 35.8195 37.2677 35.6328 37.3521 35.4665L37.754 35.3928C38.1043 35.3302 38.4077 35.2769 38.6924 35.2048C39.1866 35.0482 39.3727 34.7787 39.4086 34.1473C39.5056 32.6747 39.5807 28.4306 39.3727 27.3684C39.0192 25.6638 38.0512 24.799 36.4935 24.799C35.5818 24.799 34.4292 25.2393 33.4877 25.9458C33.3972 26.0342 33.3258 26.1403 33.2782 26.2576C33.2306 26.3749 33.2077 26.5008 33.2109 26.6273C33.2109 27.1334 33.2109 27.735 33.2109 28.3804C33.2109 30.5111 33.1969 33.1635 33.2485 34.3103C33.2797 34.6643 33.4049 35.0842 34.0664 35.2377C34.2118 35.28 34.462 35.3208 34.7529 35.3693C34.9203 35.3975 35.1032 35.4273 35.2925 35.4618C35.3526 35.8369 35.3221 36.2211 35.2033 36.5819C34.9124 36.5819 34.5543 36.5631 34.1446 36.5459C33.519 36.5177 32.7371 36.4832 31.8535 36.4832C30.8088 36.4832 30.0816 36.5177 29.4983 36.5459C29.1057 36.5647 28.7664 36.5804 28.427 36.5819" fill="#21313C"/>
<path d="M61.961 24.2039C61.3965 24.1921 60.8413 24.3486 60.3658 24.6535C59.2054 25.3601 58.6143 26.7716 58.6143 28.8459C58.6143 32.7281 60.555 35.44 63.3341 35.44C64.0792 35.4637 64.806 35.2059 65.3703 34.7178C66.2242 34.0206 66.6777 32.5949 66.6777 30.599C66.6777 26.7748 64.7807 24.2039 61.9579 24.2039H61.961ZM62.4927 36.8798C57.4726 36.8798 55.6851 33.1903 55.6851 29.7389C55.6851 27.3278 56.6688 25.4431 58.6096 24.1349C59.9689 23.2919 61.5292 22.8298 63.1276 22.797C66.9576 22.797 69.6334 25.5559 69.6334 29.5086C69.6334 32.1939 68.5653 34.3151 66.5432 35.6405C65.572 36.2359 63.8846 36.8798 62.4927 36.8798Z" fill="#21313C"/>
<path d="M113.07 24.2039C112.504 24.191 111.948 24.3476 111.471 24.6535C110.311 25.3601 109.72 26.7716 109.72 28.8459C109.72 32.7281 111.661 35.44 114.44 35.44C115.187 35.4653 115.916 35.2074 116.482 34.7178C117.336 34.0206 117.788 32.5949 117.788 30.599C117.788 26.7748 115.893 24.2039 113.07 24.2039ZM113.605 36.8798C108.584 36.8798 106.797 33.1903 106.797 29.7405C106.797 27.3262 107.781 25.4431 109.723 24.1349C111.082 23.2914 112.642 22.8293 114.24 22.797C118.069 22.797 120.745 25.5575 120.745 29.507C120.745 32.1954 119.677 34.3151 117.655 35.639C116.684 36.2359 114.996 36.8798 113.605 36.8798Z" fill="#21313C"/>
<path d="M96.167 24.0721C94.6203 24.0721 93.6194 25.2957 93.6194 27.1898C93.6194 29.0839 94.4811 31.3352 96.9036 31.3352C97.3195 31.3352 98.0733 31.1503 98.4471 30.7383C99.0101 30.2197 99.3854 29.1481 99.3854 28.017C99.3854 25.5463 98.1844 24.0721 96.1748 24.0721H96.167ZM95.9746 37.1444C95.5376 37.1396 95.1068 37.2475 94.7235 37.4577C93.499 38.241 92.9313 39.0244 92.9313 39.9346C92.9313 40.7869 93.2613 41.4652 93.9713 42.0668C94.8314 42.7969 95.9918 43.1525 97.5166 43.1525C100.518 43.1525 101.863 41.5357 101.863 39.9346C101.863 38.8191 101.304 38.0718 100.155 37.6488C99.2697 37.3245 97.7903 37.1459 95.9793 37.1459L95.9746 37.1444ZM96.1795 44.8226C94.3779 44.8226 93.0799 44.4419 91.9711 43.5865C90.892 42.753 90.4072 41.5154 90.4072 40.66C90.4188 40.1087 90.6287 39.5802 90.9983 39.1716C91.3111 38.8144 92.0383 38.1455 93.7195 36.9877C93.7455 36.9766 93.7677 36.958 93.7833 36.9344C93.7989 36.9107 93.8072 36.8829 93.8071 36.8545C93.8076 36.8229 93.7973 36.792 93.778 36.7669C93.7587 36.7419 93.7314 36.7241 93.7007 36.7167C92.3167 36.1856 91.8991 35.3067 91.7724 34.8367C91.7724 34.8194 91.7724 34.7928 91.7584 34.763C91.7193 34.5782 91.6817 34.4027 91.9335 34.2225C92.1274 34.0847 92.4371 33.8998 92.7686 33.704C93.2367 33.4444 93.6856 33.1518 94.112 32.8282C94.1349 32.8035 94.1519 32.7739 94.1617 32.7417C94.1714 32.7094 94.1736 32.6753 94.1682 32.642C94.1628 32.6088 94.1498 32.5772 94.1303 32.5497C94.1108 32.5222 94.0853 32.4996 94.0557 32.4835C92.007 31.7942 90.9748 30.2698 90.9748 27.9402C90.9686 27.2137 91.1373 26.4965 91.4667 25.8493C91.7961 25.2021 92.2765 24.6441 92.8672 24.2225C93.6913 23.5692 95.7604 22.7843 97.1006 22.7843H97.1788C98.5566 22.8172 99.3338 23.107 100.41 23.505C101.022 23.7267 101.67 23.8298 102.321 23.8089C103.461 23.8089 103.96 23.447 104.388 23.0256C104.458 23.2154 104.495 23.4156 104.498 23.6178C104.524 24.0995 104.393 24.5767 104.126 24.9776C103.893 25.3019 103.344 25.5369 102.842 25.5369C102.79 25.5369 102.74 25.5369 102.685 25.5291C102.421 25.5105 102.159 25.4669 101.903 25.3991L101.775 25.4445C101.734 25.504 101.761 25.5698 101.794 25.6544C101.802 25.671 101.808 25.6883 101.813 25.7061C101.904 26.1243 101.966 26.5483 101.999 26.9751C101.999 29.4113 101.04 30.4719 100.003 31.2584C99.0007 32.0119 97.8102 32.4738 96.5626 32.5932C96.536 32.5932 96.4062 32.6042 96.1623 32.6261C96.0059 32.6402 95.8026 32.659 95.7729 32.659H95.7432C95.518 32.7217 94.9299 33.0021 94.9299 33.5238C94.9299 33.9562 95.1958 34.4936 96.4672 34.5907L97.2898 34.6487C98.9663 34.7662 101.06 34.9119 102.046 35.2456C102.699 35.4758 103.264 35.9066 103.659 36.4768C104.054 37.0469 104.259 37.7273 104.246 38.4212C104.246 40.6067 102.695 42.6622 100.097 43.9186C98.872 44.5048 97.5308 44.8063 96.1732 44.8007" fill="#21313C"/>
<path d="M88.4942 35.4162C87.7592 35.3175 87.2228 35.2172 86.5894 34.9196C86.4651 34.7906 86.3833 34.6266 86.3548 34.4496C86.2876 33.4234 86.2876 30.4452 86.2876 28.4962C86.2876 26.9061 86.0217 25.5196 85.3492 24.5247C84.547 23.3983 83.4116 22.7372 81.9415 22.7372C80.6388 22.7372 78.9013 23.6302 77.4657 24.8553C77.4313 24.8882 77.2108 25.0981 77.2155 24.7723C77.2202 24.4464 77.2702 23.7853 77.3015 23.3623C77.3154 23.2499 77.3028 23.1358 77.2648 23.0292C77.2268 22.9225 77.1644 22.8263 77.0826 22.7481C76.1442 23.2181 73.5122 23.8448 72.5379 23.9404C71.8279 24.0782 71.648 24.7629 72.4065 24.9994H72.4175C73.0246 25.1672 73.6041 25.4226 74.1378 25.7577C74.438 25.9896 74.4052 26.3201 74.4052 26.5849C74.438 28.8017 74.438 32.2108 74.3379 34.0642C74.3051 34.7927 74.1033 35.0574 73.5685 35.1906L73.6185 35.1734C73.2113 35.2756 72.7981 35.3531 72.3815 35.4053C72.2142 35.5698 72.2142 36.5301 72.3815 36.7291C72.7162 36.7291 74.4146 36.6304 75.8221 36.6304C77.7581 36.6304 78.7606 36.7291 79.2626 36.7291C79.4643 36.4972 79.53 35.6042 79.3971 35.4053C78.9345 35.3843 78.4751 35.3176 78.0256 35.2063C77.4923 35.0747 77.3578 34.8083 77.325 34.2146C77.2593 32.6573 77.2593 29.3485 77.2593 27.0972C77.2593 26.4705 77.425 26.1713 77.6252 26.0005C78.293 25.4052 79.3971 25.0088 80.3651 25.0088C81.3035 25.0088 81.929 25.3065 82.3982 25.7029C82.9447 26.1806 83.2873 26.8501 83.3553 27.5735C83.4882 28.8268 83.4538 31.3476 83.4538 33.5268C83.4538 34.719 83.3553 35.0183 82.9205 35.1499C82.7204 35.2486 82.1855 35.3489 81.5506 35.4146C81.3504 35.6136 81.4161 36.5395 81.5506 36.7385C82.4185 36.7385 83.4272 36.6398 84.891 36.6398C86.7286 36.6398 87.8984 36.7385 88.366 36.7385C88.5662 36.5066 88.6334 35.6418 88.5005 35.4146" fill="#21313C"/>
</svg>

<svg xmlns="http://www.w3.org/2000/svg" width="174" height="47" fill="none" xmlns:v="https://vecta.io/nano"><path d="M21.025 18.853C18.631 8.271 13.641 5.455 12.368 3.463c-.525-.877-.99-1.789-1.392-2.729-.067.94-.191 1.532-.988 2.245-1.601 1.43-8.403 6.983-8.975 19.005-.533 11.21 8.226 18.122 9.383 18.836.89.439 1.974.009 2.502-.393 4.223-2.903 9.992-10.642 8.132-21.575" fill="#10aa50"/><path d="M11.338 34.852c-.221 2.775-.379 4.387-.938 5.972l.625 5.439h.913c.218-1.97.55-3.926.996-5.858-1.182-.583-1.551-3.119-1.597-5.554z" fill="#b8c4c2"/><path d="M12.933 40.408c-1.195-.553-1.54-3.143-1.594-5.555a113.9 113.9 0 0 0 .258-11.961c-.063-2.093.03-19.386-.514-21.918.372.857.801 1.689 1.284 2.489 1.273 1.993 6.265 4.81 8.658 15.391 1.864 10.913-3.874 18.632-8.092 21.554z" fill="#12924f"/><g fill="#21313c"><path d="M170.417 36.581a2.59 2.59 0 0 1-1.437-.436c-.426-.284-.759-.688-.956-1.161a2.61 2.61 0 0 1 .546-2.828 2.6 2.6 0 0 1 1.32-.719 2.59 2.59 0 0 1 1.496.133c.474.191.882.519 1.171.941s.448.922.455 1.434a2.57 2.57 0 0 1-.178 1.011 2.56 2.56 0 0 1-2.417 1.624zm0-4.963c-.467-.003-.925.133-1.315.391a2.37 2.37 0 0 0-.378 3.64 2.36 2.36 0 0 0 2.574.524 2.37 2.37 0 0 0 1.063-.868c.261-.388.401-.846.402-1.314a2.34 2.34 0 0 0-.165-.91 2.33 2.33 0 0 0-.507-.773 2.32 2.32 0 0 0-1.674-.689zm.626 4.008l-.669-1.446h-.54v1.446h-.392v-3.29h.968c.721 0 1.021.313 1.021.92 0 .483-.227.783-.649.876l.691 1.49-.43.005zm-1.193-1.786h.567c.46 0 .635-.157.635-.576s-.167-.562-.685-.562h-.517v1.139zm-38.046.373c.702.562 2.105.794 3.342.794 1.603 0 3.174-.298 4.71-1.687 1.564-1.424 2.64-3.603 2.64-7.083 0-3.343-1.27-6.057-3.875-7.645-1.471-.926-3.375-1.291-5.548-1.291-.625 0-1.269.033-1.635.199a.86.86 0 0 0-.302.47c-.066.595-.066 5.129-.066 7.81l.066 7.05c.034.398.234 1.097.668 1.39v-.006zm-6.669-18.4l3.73.099 6.681-.099c2.94 0 5.414.794 7.183 2.315 2.139 1.855 3.284 4.435 3.284 7.579 0 4.468-2.033 7.05-4.077 8.506-2.033 1.523-4.678 2.383-8.445 2.383-2.005 0-5.447-.066-8.32-.099h-.059c-.135-.265.245-1.297.48-1.324.782-.088.988-.119 1.348-.268.607-.249.749-.559.816-1.651l.067-7.282-.032-7.083c-.102-1.025-.534-1.289-1.408-1.488-.62-.132-1.246-.231-1.877-.298-.065-.199.448-1.097.615-1.291m29.172 1.68c-.132.033-.3.365-.3.529l-.067 6.453c.008.041.029.079.059.108s.067.05.108.058l2.406.067c1.269 0 2.004-.166 2.405-.365 1.07-.529 1.564-1.689 1.564-2.945 0-2.879-2.005-3.971-4.978-3.971-.402-.005-.804.017-1.203.066h.006zm7.579 13.238c0-2.912-2.139-4.567-6.049-4.567-.166 0-1.408-.033-1.703.033-.1.033-.2.099-.2.166l.067 6.751c.067.563.469 1.357.968 1.589.535.298 1.737.363 2.573.363 2.305 0 4.344-1.289 4.344-4.335zm-13.615-14.86c.302 0 1.19.099 3.462.099l5.943-.066c2.573 0 6.113.928 6.113 4.766 0 1.88-1.335 3.409-3.073 4.138-.1.033-.1.099 0 .132 2.473.627 4.644 2.151 4.644 5.063 0 2.847-1.771 4.634-4.343 5.759-1.564.696-3.508.926-5.474.926-1.503 0-5.532-.157-7.771-.132-.235-.099.214-1.159.414-1.324a6.15 6.15 0 0 0 1.516-.238c.801-.197.896-.456.996-1.648.067-1.026.067-4.7.067-7.315v-7.182c-.033-.926-.367-1.225-1.002-1.39l-2.004-.298c-.167-.166.348-1.159.513-1.291M28.424 36.582a1.45 1.45 0 0 1-.102-.669.85.85 0 0 1 .102-.446 11.34 11.34 0 0 0 1.282-.262c.591-.147.813-.47.848-1.225l.069-7.486v-.069c0-.254 0-.598-.313-.841a6.71 6.71 0 0 0-1.772-.783c-.28-.083-.435-.23-.427-.403s.184-.376.549-.448c.968-.099 3.505-.705 4.501-1.166a.66.66 0 0 1 .133.47c0 .103-.016.213-.027.326l-.059 1.086c.006.046.025.089.054.124s.068.062.111.077.09.017.135.007.086-.033.118-.066c1.897-1.49 3.597-2.021 4.468-2.021 1.434 0 2.551.686 3.416 2.099a.23.23 0 0 0 .194.114c.04.001.071-.009.103-.026s.059-.041.079-.071c1.744-1.325 3.472-2.117 4.629-2.117 2.734 0 4.368 2.051 4.368 5.483l-.019 3.406-.016 2.649c0 .157.216.608.539.697.4.196.977.296 1.708.421h.028c.055.197-.061.964-.172 1.12-.181 0-.432-.016-.744-.031l-2.252-.067-3.674.094c-.069-.227-.092-.96-.009-1.114.376-.059.748-.14 1.114-.243.579-.191.746-.454.782-1.224l-.067-6.508c-.172-1.186-1.063-2.574-3.014-2.574-.724 0-1.892.302-3.006 1.148a.44.44 0 0 0-.109.284v.024c.131.617.131 1.338.131 2.427l-.008 1.933.008 3.53c0 .645.389.801.704.924l.441.102.938.194c.06.275.055.561-.016.834a.67.67 0 0 1-.117.284l-3.544-.064-1.847.036-1.315.03c-.077-.182-.111-.379-.1-.576a1 1 0 0 1 .105-.539l.402-.074.938-.188c.494-.157.68-.426.716-1.057.097-1.473.172-5.717-.036-6.779-.354-1.705-1.322-2.569-2.879-2.569-.912 0-2.064.44-3.006 1.147a.92.92 0 0 0-.277.682v1.753l.038 5.93c.031.354.156.774.818.927.145.042.396.083.686.132l.54.092a2.38 2.38 0 0 1-.089 1.12c-.291 0-.649-.019-1.059-.036l-2.291-.063-2.355.063-1.071.036"/><path d="M61.961 24.204a2.84 2.84 0 0 0-1.595.45c-1.16.707-1.751 2.118-1.751 4.192 0 3.882 1.941 6.594 4.72 6.594a2.97 2.97 0 0 0 2.036-.722c.854-.697 1.307-2.123 1.307-4.119 0-3.824-1.897-6.395-4.72-6.395h.003zm.532 12.676c-5.02 0-6.808-3.69-6.808-7.141 0-2.411.984-4.296 2.925-5.604a8.92 8.92 0 0 1 4.518-1.338c3.83 0 6.506 2.759 6.506 6.712 0 2.685-1.068 4.807-3.09 6.132-.971.595-2.659 1.239-4.05 1.239zm50.577-12.676a2.84 2.84 0 0 0-1.599.45c-1.16.707-1.751 2.118-1.751 4.192 0 3.882 1.941 6.594 4.72 6.594a2.97 2.97 0 0 0 2.042-.722c.854-.697 1.306-2.123 1.306-4.119 0-3.824-1.895-6.395-4.718-6.395zm.535 12.676c-5.021 0-6.808-3.69-6.808-7.139 0-2.414.984-4.297 2.926-5.606a8.91 8.91 0 0 1 4.517-1.338c3.829 0 6.505 2.761 6.505 6.71 0 2.688-1.068 4.808-3.09 6.132-.971.597-2.659 1.241-4.05 1.241zM96.167 24.072c-1.547 0-2.548 1.224-2.548 3.118s.862 4.145 3.284 4.145c.416 0 1.17-.185 1.544-.597.563-.519.938-1.59.938-2.721 0-2.471-1.201-3.945-3.211-3.945h-.008zm-.192 13.072a2.54 2.54 0 0 0-1.251.313c-1.225.783-1.792 1.567-1.792 2.477 0 .852.33 1.531 1.04 2.132.86.73 2.02 1.086 3.545 1.086 3.001 0 4.346-1.617 4.346-3.218 0-1.116-.559-1.863-1.708-2.286-.885-.324-2.365-.503-4.176-.503l-.005-.002zm.205 7.678c-1.802 0-3.1-.381-4.208-1.236-1.079-.834-1.564-2.071-1.564-2.927a2.29 2.29 0 0 1 .591-1.488c.313-.357 1.04-1.026 2.721-2.184a.15.15 0 0 0 .064-.053.14.14 0 0 0 .024-.08.14.14 0 0 0-.029-.088c-.019-.025-.047-.043-.077-.05-1.384-.531-1.802-1.41-1.928-1.88 0-.017 0-.044-.014-.074-.039-.185-.077-.36.175-.541.194-.138.504-.323.835-.518a11.21 11.21 0 0 0 1.343-.876c.023-.025.04-.054.05-.087s.012-.066.007-.1a.22.22 0 0 0-.112-.159c-2.049-.689-3.081-2.214-3.081-4.543a4.52 4.52 0 0 1 .492-2.091 4.53 4.53 0 0 1 1.4-1.627c.824-.653 2.893-1.438 4.233-1.438h.078c1.378.033 2.155.323 3.231.721.612.222 1.26.325 1.911.304 1.14 0 1.639-.362 2.067-.783a1.79 1.79 0 0 1 .11.592c.026.482-.105.959-.372 1.36-.233.324-.782.559-1.284.559-.052 0-.102 0-.157-.008a4.21 4.21 0 0 1-.782-.13l-.128.045c-.041.059-.014.125.019.21.008.017.014.034.019.052.091.418.153.842.186 1.269 0 2.436-.959 3.497-1.996 4.283-1.002.753-2.193 1.215-3.44 1.335-.027 0-.156.011-.4.033l-.389.033h-.03c-.225.063-.813.343-.813.865 0 .432.266.97 1.537 1.067l.823.058c1.677.117 3.77.263 4.756.597.653.23 1.218.661 1.613 1.231s.6 1.251.587 1.944c0 2.185-1.551 4.241-4.149 5.497a9 9 0 0 1-3.924.882m-7.681-9.382c-.735-.099-1.271-.199-1.905-.497a.88.88 0 0 1-.235-.47c-.067-1.026-.067-4.004-.067-5.953 0-1.59-.266-2.977-.938-3.972-.802-1.126-1.938-1.787-3.408-1.787-1.303 0-3.04.893-4.476 2.118-.034.033-.255.243-.25-.083l.086-1.41c.014-.112.001-.227-.037-.333s-.1-.203-.182-.281c-.938.47-3.57 1.097-4.545 1.192-.71.138-.89.822-.131 1.059h.011a6.48 6.48 0 0 1 1.72.758c.3.232.267.562.267.827l-.067 7.479c-.033.729-.235.993-.769 1.126l.05-.017c-.407.102-.82.18-1.237.232-.167.165-.167 1.125 0 1.324l3.441-.099 3.441.099c.202-.232.267-1.125.134-1.324a7.04 7.04 0 0 1-1.371-.199c-.533-.132-.668-.398-.701-.992l-.066-7.117c0-.627.166-.926.366-1.097.668-.595 1.772-.992 2.74-.992.938 0 1.564.298 2.033.694a2.84 2.84 0 0 1 .957 1.871c.133 1.253.099 3.774.099 5.953 0 1.192-.099 1.492-.533 1.623-.2.099-.735.199-1.37.265-.2.199-.135 1.125 0 1.324l3.34-.099 3.475.099c.2-.232.267-1.097.135-1.324"/></g></svg>
